X:148
T:Polska efter Anders Kengo
R:sl\"angpolska
H:efter Anders Kengo, Jeppo
A:\"Osterbotten, Finland
Z:id:hn-sp-148
M:3/4
L:1/16
K:Am
Bd |: c2BA ^GABA G2GB | A2AB cB^GB BeBd | c2BA ^GABA G2GB |
A2AB cB^GB e2e2 :||: efed cdcB A^GAB | Bedc dcBA ^G2A2 |
B2e2 edfd e4 | e3d c2BA ^G2AB | Bedc dcBA ^G2A2 |
BcBA ^G2E2 AGAB |1 cBA^G A4 A4 :|2 cBA^G A4 A2 ||

